X:4
T:Tee Tie Tum Tittle Tee
R:jig
C:Natalie MacMaster & Matt MacIsaac
D:Natalie MacMaster, Blueprint, 2003
Z:Paul Stewart Cranford (P.S.C.), <http://www.cranfordpub.com>
L:1/8
Q:288
M:6/8
K:Dmix
B|:A2 D AdA|BAG A2 B|AFD AdA|GEC CEG|
ADD ccc|BdB AFD|GEC CEG|1ccc BAG:|2ccc Bdg||
|:f2 d d^cd|f2 a afd|ecG Gce|g2 b bag|
f2a ede|fcA Acd|1ecA cdc|BAG G2 g:|2ecG AGE|GFD D2|]
W:Copyrights - Published by MacMaster Music (SOCAN)
